www/assets/icons/photo_size_select_actual.svg

<svg xmlns="http://www.w3.org/2000/svg" width="24" height="24" viewBox="0 0 24 24" fill='currentColor'><path d="M21 3H3C2 3 1 4 1 5v14c0 1.1.9 2 2 2h18c1 0 2-1 2-2V5c0-1-1-2-2-2M5 17l3.5-4.5 2.5 3.01L14.5 11l4.5 6z"/></svg>

<svg width="24" height="24" viewBox="0 0 24 24" xmlns="http://www.w3.org/2000/svg" fill='currentColor'><path d="M21 3H3C2 3 1 4 1 5V19C1 20.1 1.9 21 3 21H21C22 21 23 20 23 19V5C23 4 22 3 21 3ZM5 17L8.5 12.5L11 15.51L14.5 11L19 17H5Z"/></svg>
